X:92
T:Bonny Kate
%%VWML:JohnsonVol8-2184-p46-0
F:http://www.vwml.org/record/JohnsonVol8/2184/p46
Z:Transcribed by Simon Furey and Lewis Jones
Z:vmp.Simon Wilson 2013 www.village-music-project.org.uk
Z:Dance added by John Chambers 2017
M:C|
L:1/8
%Q:1/4=100
K:A
|:\
a>bag aeef | edcB cA-AB |\
cA- AB/c/ dB -Bc/d/ | c>edcB4 :|
|:\
cA- AB/c/ dBec | fd- de/f/g2ef/g/ |\
a>baf egaf | e>fecA2A2 :|
W: First and 2d Cu. foot it and change
W:Sides .| the same back again :||
W:Cross over two Cu. :||. Lead up
W:to the top and cast off :||: Right
W:hands across at Bottom .| Left
W:hands across at Top :| Hands
W:six round :|. Right hands and
W:Left with the 2d Cu. :||:
W:
